X: 40137
T: Tiger
R: hornpipe
M: 4/4
K: Gmajor
(3DEF|GFGB AGEG|cBcA dedc|BGBd (3cBA (3BAG|EGFA (3GDB, (3G,B,D|
G2GB AGEG|cBcA dedc|BGBd (3cBA (3BAG|EGFA G2||
Bc|dgBg dgBg|gb (3agf e2e>f|(3gab (3agf (3gfe dB|(3def (3def gdBc|
dgBg dgBg|gb (3agf e2e>f|(3gab (3agf (3gfe dB|(3def (3def gdBA||

